X: 55
T: No_148_Fox_Dance_Song_(c).krn
N: Derived from No_148_Fox_Dance_Song_(c).krn
%%abc-version 2.0
%%abcx-abcm2ps-target-version 5.9.1 (29 Sep 2008)
%%abc-creator hum2abc beta
%%abcx-conversion-date 2019/03/15 08:38:45
%%humdrum-veritas 422607769
%%humdrum-veritas-data 2732604205
%%linebreak <none>
%%barnumbers 0
L: 1/8
M: 2/4
K: G clef=bass
[K:clef=bass][M:2/4]z2z3/ D/ ]|:  
D3//A,//B,/A,/ A,3/B,/ | 
A,3/G,/ (G,F,) ||  
[M:3/4]D,D, D,A,/A,/ A,G,/G,/ ||  
[M:2/4]E,D, D,3/A,/ | 
A,3/G,/ (G,F,) | 
D,D,D,2 | 
(3E,D,D, D,D, | 
D,D, D, z/ D/ :|]  
D,D, D, z |]  



